icons/svg/tourist_colored/information_office.svg

<?xml version="1.0" encoding="UTF-8" standalone="no"?>
<!-- Created with Inkscape (http://www.inkscape.org/) -->

<svg
   xmlns:dc="http://purl.org/dc/elements/1.1/"
   xmlns:cc="http://creativecommons.org/ns#"
   xmlns:rdf="http://www.w3.org/1999/02/22-rdf-syntax-ns#"
   xmlns:svg="http://www.w3.org/2000/svg"
   xmlns="http://www.w3.org/2000/svg"
   xmlns:sodipodi="http://sodipodi.sourceforge.net/DTD/sodipodi-0.dtd"
   xmlns:inkscape="http://www.inkscape.org/namespaces/inkscape"
   version="1.0"
   width="580"
   height="580"
   id="svg2"
   sodipodi:version="0.32"
   inkscape:version="0.91 r"
   sodipodi:docname="information_office.svg"
   inkscape:output_extension="org.inkscape.output.svg.inkscape">
  <metadata
     id="metadata10">
    <rdf:RDF>
      <cc:Work
         rdf:about="">
        <dc:format>image/svg+xml</dc:format>
        <dc:type
           rdf:resource="http://purl.org/dc/dcmitype/StillImage" />
        <cc:license
           rdf:resource="http://web.resource.org/cc/PublicDomain" />
        <dc:language>en</dc:language>
      </cc:Work>
    </rdf:RDF>
  </metadata>
  <sodipodi:namedview
     inkscape:window-height="1004"
     inkscape:window-width="1920"
     inkscape:pageshadow="2"
     inkscape:pageopacity="0.0"
     guidetolerance="10.0"
     gridtolerance="10.0"
     objecttolerance="10.0"
     borderopacity="1.0"
     bordercolor="#666666"
     pagecolor="#ffffff"
     id="base"
     showgrid="false"
     inkscape:zoom="0.7071068"
     inkscape:cx="552.68967"
     inkscape:cy="375.40058"
     inkscape:window-x="1680"
     inkscape:window-y="0"
     inkscape:current-layer="svg2"
     inkscape:window-maximized="1" />
  <defs
     id="defs4">
    <inkscape:perspective
       sodipodi:type="inkscape:persp3d"
       inkscape:vp_x="0 : 290 : 1"
       inkscape:vp_y="0 : 1000 : 0"
       inkscape:vp_z="580 : 290 : 1"
       inkscape:persp3d-origin="290 : 193.33333 : 1"
       id="perspective12" />
    <style
       type="text/css"
       id="style6">
   
    .fil0 {fill:#EF7900}
   
  </style>
    <inkscape:perspective
       id="perspective6807"
       inkscape:persp3d-origin="29.116032 : 19.410688 : 1"
       inkscape:vp_z="58.232063 : 29.116032 : 1"
       inkscape:vp_y="0 : 1000 : 0"
       inkscape:vp_x="0 : 29.116032 : 1"
       sodipodi:type="inkscape:persp3d" />
  </defs>
  <g
     id="g1327">
    <path
       d="M 66.275,1.768 C 24.94,1.768 1.704,23.139 1.704,66.804 L 1.704,516.927 C 1.704,557.771 22.598,579.156 63.896,579.156 L 515.92,579.156 C 557.227,579.156 578.149,558.84 578.149,516.927 L 578.149,66.804 C 578.149,24.203 557.227,1.768 514.627,1.768 C 514.624,1.768 66.133,1.625 66.275,1.768 z"
       style="fill:#111111;stroke:#eeeeee;stroke-width:3.40799999"
       id="path1329" />
  </g>
  <path
     style="font-style:normal;font-variant:normal;font-weight:bold;font-stretch:normal;font-size:48px;line-height:100%;font-family:Garamond;-inkscape-font-specification:'Garamond Bold';text-align:start;writing-mode:lr-tb;text-anchor:start;fill:#ffffff;fill-opacity:1;stroke:none;stroke-width:1px;stroke-linecap:butt;stroke-linejoin:miter;stroke-opacity:1"
     d="m 420.98819,104.31041 c 0,-11.542965 3.7408,-21.002037 11.22268,-28.377486 7.48176,-7.374492 17.10131,-11.061943 28.85853,-11.062353 12.61199,4.1e-4 23.08661,3.901695 31.42356,11.70372 8.33682,7.802845 12.50516,16.620684 12.50544,26.453519 -2.8e-4,7.26846 -1.65692,14.53651 -4.97019,21.80416 -3.31342,7.26845 -8.55079,13.09357 -15.71172,17.47547 -7.16134,4.38245 -14.48289,6.57359 -21.9645,6.57334 -10.26092,2.5e-4 -19.71998,-4.38191 -28.37749,-13.14667 -8.65764,-8.76407 -12.98631,-19.23855 -12.98631,-31.4237 l 0,0 z m -44.89092,382.53474 -0.64137,-20.84223 36.23342,-4.80971 c 5.34408,-1.49631 9.03154,-3.68745 11.06249,-6.57334 2.03067,-2.88574 3.04608,-9.35222 3.04608,-19.3993 l 0,-3.5271 c 0,-2.56506 0.16034,-7.21456 0.48102,-13.94824 0.32055,-6.73353 0.4809,-12.66564 0.4809,-17.79602 0,-4.06149 -0.32069,-11.86393 -0.96192,-23.40744 l 0.32069,-16.03241 -0.32069,-15.07062 0.64136,-52.26582 c -1.3e-4,-6.62654 -0.64136,-13.46706 -1.92396,-20.52156 -2.35149,-3.20628 -6.62682,-5.98518 -12.82597,-8.33681 -6.1993,-2.35122 -16.99445,-4.06135 -32.38549,-5.13039 l 0,-17.95637 c 22.01785,-1.28245 41.36368,-5.87832 58.03743,-13.78802 11.32955,-5.13013 23.62114,-14.21515 36.8748,-27.2551 l 21.48347,0 c 0.85493,26.50715 1.28246,60.9236 1.28259,103.24903 l -2.2445,130.82496 c -1.4e-4,8.97819 0.42739,17.10131 1.28245,24.36936 6.6267,2.35149 17.42185,4.70285 32.38563,7.05435 5.77162,0.85506 10.36749,1.92383 13.78789,3.20641 l -0.32054,17.6357 c -5.7719,0.21384 -10.04724,0.32067 -12.82599,0.32067 -3.20669,0 -8.12325,-0.21369 -14.74994,-0.64122 -21.80429,-1.06891 -50.98335,-1.60328 -87.53731,-1.60328 -10.47449,0 -20.62842,0.37403 -30.46167,1.12226 -9.83324,0.7482 -16.56691,1.12224 -20.20087,1.12224 l 0,0 z"
     id="flowRoot6828"
     inkscape:connector-curvature="0" />
  <path
     inkscape:connector-curvature="0"
     style="color:#000000;clip-rule:nonzero;display:inline;overflow:visible;visibility:visible;opacity:1;isolation:auto;mix-blend-mode:normal;color-interpolation:sRGB;color-interpolation-filters:linearRGB;solid-color:#000000;solid-opacity:1;fill:#ffffff;fill-opacity:1;fill-rule:nonzero;stroke:none;stroke-width:25;stroke-linecap:round;stroke-linejoin:round;stroke-miterlimit:4;stroke-dasharray:none;stroke-dashoffset:0;stroke-opacity:1;marker:none;color-rendering:auto;image-rendering:auto;shape-rendering:auto;text-rendering:auto;enable-background:accumulate"
     d="m 158.95246,294.23202 c -14.86356,0 -27.61817,9.03029 -33.07733,21.90604 l -2.83542,34.61662 0,37.99001 c 0,4.62106 0.87997,9.03308 2.46975,13.09154 l -77.569091,0 0,26.2597 0,10.50502 0,91.03971 24.289384,0 0,-91.03971 249.054017,0 0,91.03971 24.28555,0 0,-91.03971 0.002,0 0,-36.76472 -77.56908,0 c 1.58977,-4.05846 2.46974,-8.4705 2.46974,-13.09154 l 0,-37.9881 -2.83542,-34.62044 c -5.45915,-12.87226 -18.21376,-21.90413 -33.07733,-21.90413 l -75.60669,0 z m -7.56048,48.2021 8.50626,0 0,59.40211 -8.50626,0 z m 82.22139,0 8.50625,0 0,59.40211 -8.50625,0 z"
     id="path4178"
     sodipodi:nodetypes="sccsccccccccccccccsccscscccccccccc" />
  <path
     inkscape:connector-curvature="0"
     style="color:#000000;clip-rule:nonzero;display:inline;overflow:visible;visibility:visible;opacity:1;isolation:auto;mix-blend-mode:normal;color-interpolation:sRGB;color-interpolation-filters:linearRGB;solid-color:#000000;solid-opacity:1;fill:#ffffff;fill-opacity:1;fill-rule:nonzero;stroke:none;stroke-width:25;stroke-linecap:round;stroke-linejoin:round;stroke-miterlimit:4;stroke-dasharray:none;stroke-dashoffset:0;stroke-opacity:1;marker:none;color-rendering:auto;image-rendering:auto;shape-rendering:auto;text-rendering:auto;enable-background:accumulate"
     d="m 196.75676,191.06759 c -24.27147,0 -43.94801,19.67465 -43.94803,43.94611 0,24.27146 19.67656,43.94611 43.94803,43.94611 24.27147,0 43.94611,-19.67465 43.94611,-43.94611 0,-24.27146 -19.67464,-43.94611 -43.94611,-43.94611 z"
     id="path4176" />
</svg>

<svg width="580" height="580" viewBox="0 0 580 580" fill="none" xmlns="http://www.w3.org/2000/svg">
<g clip-path="url(#clip0)">
<path d="M66.2751 1.76799C24.9401 1.76799 1.7041 23.139 1.7041 66.804V516.927C1.7041 557.771 22.5981 579.156 63.8961 579.156H515.92C557.227 579.156 578.149 558.84 578.149 516.927V66.804C578.149 24.203 557.227 1.76799 514.627 1.76799C514.624 1.76799 66.1331 1.62499 66.2751 1.76799Z" fill="#111111" stroke="#EEEEEE" stroke-width="3.408"/>
<path d="M420.988 104.31C420.988 92.7675 424.729 83.3084 432.211 75.9329C439.693 68.5584 449.312 64.871 461.069 64.8706C473.681 64.871 484.156 68.7723 492.493 76.5743C500.83 84.3771 504.998 93.195 504.998 103.028C504.998 110.296 503.341 117.564 500.028 124.832C496.715 132.1 491.477 137.926 484.316 142.307C477.155 146.69 469.834 148.881 462.352 148.881C452.091 148.881 442.632 144.499 433.974 135.734C425.317 126.97 420.988 116.496 420.988 104.31V104.31ZM376.097 486.845L375.456 466.003L411.689 461.193C417.033 459.697 420.721 457.506 422.752 454.62C424.782 451.734 425.798 445.268 425.798 435.221V431.693C425.798 429.128 425.958 424.479 426.279 417.745C426.599 411.012 426.76 405.08 426.76 399.949C426.76 395.888 426.439 388.085 425.798 376.542L426.118 360.509L425.798 345.439L426.439 293.173C426.439 286.546 425.798 279.706 424.515 272.651C422.164 269.445 417.888 266.666 411.689 264.315C405.49 261.963 394.695 260.253 379.304 259.184V241.228C401.322 239.945 420.667 235.349 437.341 227.44C448.671 222.31 460.962 213.225 474.216 200.185H495.699C496.554 226.692 496.982 261.108 496.982 303.434L494.738 434.259C494.737 443.237 495.165 451.36 496.02 458.628C502.647 460.98 513.442 463.331 528.406 465.682C534.177 466.537 538.773 467.606 542.194 468.889L541.873 486.524C536.101 486.738 531.826 486.845 529.047 486.845C525.84 486.845 520.924 486.631 514.297 486.204C492.493 485.135 463.314 484.601 426.76 484.601C416.285 484.601 406.131 484.975 396.298 485.723C386.465 486.471 379.731 486.845 376.097 486.845V486.845Z" fill="white"/>
<path d="M158.953 294.232C144.089 294.232 131.334 303.262 125.875 316.138L123.04 350.755V388.745C123.04 393.366 123.92 397.778 125.51 401.836H47.9404V428.096V438.601V529.641H72.2298V438.601H321.284V529.641H345.569V438.601H345.571V401.836H268.002C269.592 397.778 270.472 393.366 270.472 388.745V350.757L267.637 316.136C262.177 303.264 249.423 294.232 234.559 294.232H158.953H158.953ZM151.392 342.434H159.898V401.836H151.392V342.434ZM233.613 342.434H242.12V401.836H233.613V342.434Z" fill="white"/>
<path d="M196.757 191.068C172.485 191.068 152.809 210.742 152.809 235.014C152.809 259.285 172.485 278.96 196.757 278.96C221.028 278.96 240.703 259.285 240.703 235.014C240.703 210.742 221.028 191.068 196.757 191.068V191.068Z" fill="white"/>
</g>
<defs>
<clipPath id="clip0">
<path d="M0 0H580V580H0V0Z" fill="white"/>
</clipPath>
</defs>
</svg>
